public/img/clients/neptis.svg

<svg xmlns="http://www.w3.org/2000/svg" focusable="false" role="img" viewBox="0 0 200 100" fill="currentColor">
  <path fill-rule="evenodd" d="M39.42 40.064c0-1.016.822-1.886 1.838-1.886 1.064 0 1.886.822 1.886 1.886v2.707c1.643-2.706 4.255-4.882 8.558-4.882 6.044 0 9.573 4.06 9.573 10.01v13.876c0 1.064-.82 1.885-1.837 1.885a1.858 1.858 0 01-1.886-1.886v-12.96c0-4.64-2.514-7.54-6.914-7.54-4.303 0-7.494 3.14-7.494 7.832v12.668c0 1.064-.774 1.885-1.838 1.885a1.858 1.858 0 01-1.886-1.886v-21.71.001zm37.084 23.934c-6.865 0-12.474-5.27-12.474-13.007v-.096c0-7.204 5.077-13.006 11.99-13.006 7.4 0 11.606 6.044 11.606 12.668 0 1.015-.823 1.74-1.74 1.74H67.8c.53 5.416 4.35 8.462 8.8 8.462 3.094 0 5.366-1.21 7.204-2.9.29-.242.628-.436 1.063-.436.918 0 1.643.725 1.643 1.596 0 .435-.193.87-.58 1.21-2.37 2.27-5.173 3.77-9.43 3.77l.004-.001zm7.4-14.457c-.388-4.544-3-8.51-7.98-8.51-4.35 0-7.64 3.627-8.122 8.51h16.102zm6.668-9.477c0-1.064.822-1.886 1.837-1.886 1.063 0 1.885.822 1.885 1.886v3.384c2.03-2.997 4.98-5.56 9.574-5.56 5.995 0 11.942 4.74 11.942 12.958v.096c0 8.172-5.9 13.008-11.943 13.008-4.643 0-7.64-2.515-9.575-5.32v10.88c0 1.064-.773 1.886-1.838 1.886a1.858 1.858 0 01-1.885-1.886V40.064h.003zm21.42 10.927v-.096c0-5.898-4.062-9.67-8.8-9.67-4.642 0-9.042 3.917-9.042 9.622v.096c0 5.803 4.4 9.67 9.042 9.67 4.835 0 8.8-3.577 8.8-9.62v-.002zm7.733 5.803V41.708h-2.03c-.87 0-1.644-.774-1.644-1.644 0-.92.774-1.644 1.645-1.644h2.03v-5.9c0-1.014.774-1.885 1.838-1.885 1.015 0 1.885.87 1.885 1.886v5.9h6.48c.918 0 1.692.773 1.692 1.644 0 .918-.774 1.644-1.693 1.644h-6.48V56.31c0 3.046 1.693 4.158 4.208 4.158 1.305 0 1.983-.338 2.272-.338.87 0 1.596.725 1.596 1.595 0 .677-.435 1.21-1.064 1.45-1.065.436-2.225.677-3.676.677-4.013 0-7.06-1.982-7.06-7.058h.001zm14.601-26.207c0-1.21.967-1.983 2.175-1.983 1.26 0 2.226.774 2.226 1.983v.628c0 1.16-.967 1.983-2.225 1.983-1.207 0-2.174-.822-2.174-1.983v-.628h-.002zm.34 9.477c0-1.016.82-1.886 1.835-1.886 1.066 0 1.888.822 1.888 1.886v21.71c0 1.064-.774 1.885-1.838 1.885a1.857 1.857 0 01-1.885-1.886v-21.71.001zm7.394 20.694a1.684 1.684 0 01-.676-1.353c0-.87.725-1.596 1.644-1.596.338 0 .677.096.918.29 2.563 1.74 5.223 2.658 7.93 2.658 2.998 0 5.174-1.547 5.174-3.964v-.097c0-2.514-2.95-3.482-6.237-4.4-3.917-1.113-8.27-2.466-8.27-7.06v-.096c0-4.302 3.58-7.156 8.51-7.156 2.66 0 5.562.822 7.98 2.128.482.29.918.822.918 1.547 0 .87-.724 1.595-1.643 1.595-.338 0-.63-.097-.822-.193-2.127-1.21-4.4-1.935-6.528-1.935-2.95 0-4.835 1.548-4.835 3.627v.097c0 2.37 3.095 3.29 6.43 4.304 3.87 1.16 8.028 2.66 8.028 7.156v.097c0 4.738-3.917 7.494-8.897 7.494-3.288 0-6.914-1.207-9.622-3.142l-.002-.001z" clip-rule="evenodd"/>
</svg>

<svg width="200" height="100" viewBox="0 0 200 100" fill="none" xmlns="http://www.w3.org/2000/svg">
<path fill-rule="evenodd" clip-rule="evenodd" d="M39.42 40.064C39.42 39.048 40.242 38.178 41.258 38.178C42.322 38.178 43.144 39 43.144 40.064V42.771C44.787 40.065 47.399 37.889 51.702 37.889C57.746 37.889 61.275 41.949 61.275 47.899V61.775C61.275 62.839 60.455 63.66 59.438 63.66C58.374 63.66 57.552 62.838 57.552 61.774V48.814C57.552 44.174 55.038 41.274 50.638 41.274C46.335 41.274 43.144 44.414 43.144 49.106V61.774C43.144 62.838 42.37 63.659 41.306 63.659C40.242 63.659 39.42 62.837 39.42 61.773V40.063V40.064ZM76.504 63.998C69.639 63.998 64.03 58.728 64.03 50.991V50.895C64.03 43.691 69.107 37.889 76.02 37.889C83.42 37.889 87.626 43.933 87.626 50.557C87.626 51.572 86.803 52.297 85.886 52.297H67.8C68.33 57.713 72.15 60.759 76.6 60.759C79.694 60.759 81.966 59.549 83.804 57.859C84.094 57.617 84.432 57.423 84.867 57.423C85.785 57.423 86.51 58.148 86.51 59.019C86.51 59.454 86.317 59.889 85.93 60.229C83.56 62.499 80.757 63.999 76.5 63.999L76.504 63.998ZM83.904 49.541C83.516 44.997 80.904 41.031 75.924 41.031C71.574 41.031 68.284 44.658 67.802 49.541H83.902H83.904ZM90.572 40.064C90.572 39 91.394 38.178 92.409 38.178C93.472 38.178 94.294 39 94.294 40.064V43.448C96.324 40.451 99.274 37.888 103.868 37.888C109.863 37.888 115.81 42.628 115.81 50.846V50.942C115.81 59.114 109.91 63.95 103.867 63.95C99.224 63.95 96.227 61.435 94.292 58.63V69.51C94.292 70.574 93.519 71.396 92.454 71.396C91.391 71.396 90.569 70.574 90.569 69.51V40.064H90.572ZM111.992 50.991V50.895C111.992 44.997 107.93 41.225 103.192 41.225C98.55 41.225 94.15 45.142 94.15 50.847V50.943C94.15 56.746 98.55 60.613 103.192 60.613C108.027 60.613 111.992 57.036 111.992 50.993V50.991ZM119.725 56.794V41.708H117.695C116.825 41.708 116.051 40.934 116.051 40.064C116.051 39.144 116.825 38.42 117.696 38.42H119.726V32.52C119.726 31.506 120.5 30.635 121.564 30.635C122.579 30.635 123.449 31.505 123.449 32.521V38.421H129.929C130.847 38.421 131.621 39.194 131.621 40.065C131.621 40.983 130.847 41.709 129.928 41.709H123.448V56.31C123.448 59.356 125.141 60.468 127.656 60.468C128.961 60.468 129.639 60.13 129.928 60.13C130.798 60.13 131.524 60.855 131.524 61.725C131.524 62.402 131.089 62.935 130.46 63.175C129.395 63.611 128.235 63.852 126.784 63.852C122.771 63.852 119.724 61.87 119.724 56.794H119.725ZM134.326 30.587C134.326 29.377 135.293 28.604 136.501 28.604C137.761 28.604 138.727 29.378 138.727 30.587V31.215C138.727 32.375 137.76 33.198 136.502 33.198C135.295 33.198 134.328 32.376 134.328 31.215V30.587H134.326ZM134.666 40.064C134.666 39.048 135.486 38.178 136.501 38.178C137.567 38.178 138.389 39 138.389 40.064V61.774C138.389 62.838 137.615 63.659 136.551 63.659C135.487 63.659 134.666 62.837 134.666 61.773V40.063V40.064ZM142.06 60.758C141.723 60.516 141.384 60.033 141.384 59.405C141.384 58.535 142.109 57.809 143.028 57.809C143.366 57.809 143.705 57.905 143.946 58.099C146.509 59.839 149.169 60.757 151.876 60.757C154.874 60.757 157.05 59.21 157.05 56.793V56.696C157.05 54.182 154.1 53.214 150.813 52.296C146.896 51.183 142.543 49.83 142.543 45.236V45.14C142.543 40.838 146.123 37.984 151.053 37.984C153.713 37.984 156.615 38.806 159.033 40.112C159.515 40.402 159.951 40.934 159.951 41.659C159.951 42.529 159.227 43.254 158.308 43.254C157.97 43.254 157.678 43.157 157.486 43.061C155.359 41.851 153.086 41.126 150.958 41.126C148.008 41.126 146.123 42.674 146.123 44.753V44.85C146.123 47.22 149.218 48.14 152.553 49.154C156.423 50.314 160.581 51.814 160.581 56.31V56.407C160.581 61.145 156.664 63.901 151.684 63.901C148.396 63.901 144.77 62.694 142.062 60.759L142.06 60.758Z" fill="black"/>
</svg>
